flaticon/arrows/left-arrow-4.svg

<svg xmlns="http://www.w3.org/2000/svg" width="32" height="32" viewBox="0 0 24 24">
    <path d="M 12 0 C 5.382812 0 0 5.382812 0 12 C 0 18.617188 5.382812 24 12 24 C 18.617188 24 24 18.617188 24 12 C 24 5.382812 18.617188 0 12 0 Z M 12 23.109375 C 5.875 23.109375 0.890625 18.125 0.890625 12 C 0.890625 5.875 5.875 0.890625 12 0.890625 C 18.125 0.890625 23.109375 5.875 23.109375 12 C 23.109375 18.125 18.125 23.109375 12 23.109375 Z M 12 23.109375"/>
    <path d="M 17.777344 11.554688 L 6.851562 11.554688 L 10.535156 7.871094 L 9.90625 7.242188 L 5.148438 12 L 9.90625 16.757812 L 10.535156 16.128906 L 6.851562 12.445312 L 17.777344 12.445312 C 18.023438 12.445312 18.222656 12.246094 18.222656 12 C 18.222656 11.753906 18.023438 11.554688 17.777344 11.554688 Z M 17.777344 11.554688"/>
</svg>

<svg xmlns="http://www.w3.org/2000/svg" width="32" height="32" viewBox="0 0 24 24">
    <path d="M12 0C5.383 0 0 5.383 0 12s5.383 12 12 12 12-5.383 12-12S18.617 0 12 0zm0 23.11C5.875 23.11.89 18.124.89 12 .89 5.875 5.876.89 12 .89 18.125.89 23.11 5.876 23.11 12c0 6.125-4.985 11.11-11.11 11.11zm0 0"/>
    <path d="M17.777 11.555H6.852l3.683-3.684-.629-.629L5.148 12l4.758 4.758.63-.63-3.684-3.683h10.925a.445.445 0 1 0 0-.89zm0 0"/>
</svg>
